res/skins/LateNight/palemoon/buttons/btn__mic_talk_active.svg

<?xml version="1.0" encoding="UTF-8" standalone="no"?>
<svg
   xmlns:dc="http://purl.org/dc/elements/1.1/"
   xmlns:cc="http://creativecommons.org/ns#"
   xmlns:rdf="http://www.w3.org/1999/02/22-rdf-syntax-ns#"
   xmlns:svg="http://www.w3.org/2000/svg"
   xmlns="http://www.w3.org/2000/svg"
   width="40"
   height="22"
   version="1.1"
   id="svg22">
  <metadata
     id="metadata28">
    <rdf:RDF>
      <cc:Work
         rdf:about="">
        <dc:format>image/svg+xml</dc:format>
        <dc:type
           rdf:resource="http://purl.org/dc/dcmitype/StillImage" />
        <dc:title></dc:title>
      </cc:Work>
    </rdf:RDF>
  </metadata>
  <defs
     id="defs26" />
  <g
     transform="translate(-0.08771931,0.14619885)"
     aria-label="TALK"
     style="font-style:normal;font-weight:normal;font-size:40px;line-height:1.25;font-family:sans-serif;letter-spacing:0px;word-spacing:0px;fill:#0f0e0c;fill-opacity:1;stroke:none;stroke-width:1.6;stroke-miterlimit:4;stroke-dasharray:none;stroke-opacity:1"
     id="text847-3">
    <path
       d="M 9.2744141,15.300781 H 7.4580078 V 8.2460938 H 5.1318359 V 6.734375 H 11.600586 V 8.2460938 H 9.2744141 Z"
       style="font-style:normal;font-variant:normal;font-weight:bold;font-stretch:normal;font-size:12px;font-family:'Open Sans';-inkscape-font-specification:'Open Sans Bold';fill:#0f0e0c;fill-opacity:1;stroke:none;stroke-width:1.6;stroke-miterlimit:4;stroke-dasharray:none;stroke-opacity:1"
       id="path962" />
    <path
       d="m 18.163086,15.300781 -0.621094,-2.039062 h -3.123047 l -0.621093,2.039062 H 11.84082 l 3.023438,-8.6015623 h 2.220703 l 3.035156,8.6015623 z m -1.054688,-3.5625 Q 16.24707,8.9667969 16.135742,8.6035156 16.030273,8.2402344 15.983398,8.0292969 q -0.193359,0.75 -1.107421,3.7089841 z"
       style="font-style:normal;font-variant:normal;font-weight:bold;font-stretch:normal;font-size:12px;font-family:'Open Sans';-inkscape-font-specification:'Open Sans Bold';fill:#0f0e0c;fill-opacity:1;stroke:none;stroke-width:1.6;stroke-miterlimit:4;stroke-dasharray:none;stroke-opacity:1"
       id="path964" />
    <path
       d="M 21.198242,15.300781 V 6.734375 h 1.816406 v 7.066406 h 3.47461 v 1.5 z"
       style="font-style:normal;font-variant:normal;font-weight:bold;font-stretch:normal;font-size:12px;font-family:'Open Sans';-inkscape-font-specification:'Open Sans Bold';fill:#0f0e0c;fill-opacity:1;stroke:none;stroke-width:1.6;stroke-miterlimit:4;stroke-dasharray:none;stroke-opacity:1"
       id="path966" />
    <path
       d="m 34.868164,15.300781 h -2.0625 l -2.244141,-3.609375 -0.767578,0.550782 v 3.058593 H 27.977539 V 6.734375 h 1.816406 v 3.919922 L 30.508789,9.6464844 32.829102,6.734375 h 2.015625 l -2.988282,3.791016 z"
       style="font-style:normal;font-variant:normal;font-weight:bold;font-stretch:normal;font-size:12px;font-family:'Open Sans';-inkscape-font-specification:'Open Sans Bold';fill:#0f0e0c;fill-opacity:1;stroke:none;stroke-width:1.6;stroke-miterlimit:4;stroke-dasharray:none;stroke-opacity:1"
       id="path968" />
  </g>
</svg>

<svg width="40" height="22" version="1.1" xmlns="http://www.w3.org/2000/svg">
  <g transform="translate(-.0877193 .146199)" fill="#0f0e0c" aria-label="TALK">
    <path d="m9.27441 15.3008h-1.81641v-7.05469h-2.32617v-1.51172h6.46875v1.51172h-2.32617z"/>
    <path d="m18.1631 15.3008-0.621094-2.03906h-3.12305l-0.621093 2.03906h-1.95703l3.02344-8.60156h2.2207l3.03516 8.60156zm-1.05469-3.5625q-0.861328-2.77148-0.972656-3.13477-0.105469-0.363281-0.152344-0.574219-0.193359 0.75-1.10742 3.70898z"/>
    <path d="m21.1982 15.3008v-8.56641h1.81641v7.06641h3.47461v1.5z"/>
    <path d="m34.8682 15.3008h-2.0625l-2.24414-3.60938-0.767578 0.550782v3.05859h-1.81641v-8.56641h1.81641v3.91992l0.714844-1.00781 2.32031-2.91211h2.01562l-2.98828 3.79102z"/>
  </g>
</svg>
